_includes/icons/ios-healthy-food.svg

<svg fill="#666" height="50" viewBox="0 0 50 50" width="50" xmlns="http://www.w3.org/2000/svg"><path d="m42.011719 1.984375c-4.296875 0-8.914063.375-12.601563 2.070313-3.683593 1.691406-6.410156 4.925781-6.410156 10.007812 0 3.484375 1.792969 6.132813 2.324219 6.851563-.402344 1.21875-.722656 2.449218-.933594 3.671875-.71875-1.03125-1.632812-2.027344-2.660156-2.96875 0-.027344 0-.054688.003906-.082032 0 0 .027344-2.527343-.957031-5.113281-.496094-1.292969-1.25-2.628906-2.445313-3.667969-1.195312-1.035156-2.84375-1.726562-4.894531-1.726562-5.183594 0-9.882812 3.078125-9.882812 3.078125-.371094.238281-.542969.691406-.421875 1.113281 0 0 .675781 2.386719 2.203125 4.792969 1.527343 2.402344 4.03125 4.988281 7.664062 4.988281 2.492188 0 4.46875-1.113281 4.46875-1.113281.328125-.164063.539063-.496094.550781-.859375.007813-.367188-.179687-.707031-.492187-.894531-.316406-.183594-.707031-.183594-1.019531.003906 0 0-1.617188.863281-3.507813.863281-2.679687 0-4.625-1.9375-5.976562-4.0625-.957032-1.511719-1.429688-2.746094-1.691407-3.496094.914063-.53125 4.289063-2.414062 8.105469-2.414062 1.621094 0 2.722656.492187 3.585938 1.238281.863281.75 1.46875 1.785156 1.882812 2.871094.371094.96875.558594 1.929687.671875 2.71875-2.605469-1.917969-5.625-3.394531-8.421875-3.84375-.0625-.011719-.128906-.015625-.199219-.011719-.519531.007813-.945312.417969-.972656.9375-.03125.523438.339844.976563.859375 1.050781 2.722656.4375 6.132813 2.214844 8.765625 4.421875 2.164063 1.820313 3.71875 3.941407 4.210938 5.589844h-20.820313c-.550781 0-1 .449219-1 1 0 7.605469 4.527344 14.105469 11 17.140625v.859375c0 1.09375.90625 2 2 2h20c1.09375 0 2-.90625 2-2v-.859375c6.472656-3.035156 11-9.535156 11-17.140625 0-.550781-.449219-1-1-1h-20.96875c.296875-6.914062 3.71875-14.695312 11.464844-19.132812.410156-.226563.605469-.707032.476562-1.15625-.132812-.449219-.558593-.746094-1.023437-.71875-.160156.011718-.308594.058593-.445313.140625-4.96875 2.84375-8.308593 6.960937-10.277343 11.410156-.578125-1.097656-1.226563-2.703125-1.226563-4.480469 0-4.414062 2.046875-6.722656 5.246094-8.195312 2.851562-1.308594 6.652344-1.710938 10.398437-1.796875-.28125 1.125-.363281 2.222656-.222656 3.25.207031 1.492187.578125 2.914062.578125 4.589843 0 4.597657-2.863281 6.984375-5.921875 8.410157-3.058594 1.425781-6.15625 1.683593-6.15625 1.683593-.367187.015625-.699219.230469-.859375.558594s-.128906.71875.082031 1.019531c.210938.300782.570313.457032.933594.414063 0 0 3.402344-.257813 6.84375-1.863281 3.441406-1.605469 7.078125-4.761719 7.078125-10.222657 0-1.964843-.414062-3.542968-.597656-4.867187s-.183594-2.339844.488281-3.585938c.167969-.308593.160156-.683593-.019531-.988281-.179688-.300781-.507813-.488281-.859375-.484375zm-37.863281 28.015625h20.683593c.109375.019531.21875.019531.324219 0h20.691406c-.394531 6.601563-4.433593 12.214844-10.238281 14.667969-.367187.15625-.609375.519531-.609375.921875v1.410156h-20v-1.410156c0-.402344-.242187-.765625-.609375-.921875-5.804687-2.453125-9.84375-8.066406-10.242187-14.667969z"/></svg>

<svg xmlns="http://www.w3.org/2000/svg" viewBox="0 0 50 50" width="50" height="50" fill="#666"><path d="M 42.011719 1.984375 C 37.714844 1.984375 33.097656 2.359375 29.410156 4.054688 C 25.726563 5.746094 23 8.980469 23 14.0625 C 23 17.546875 24.792969 20.195313 25.324219 20.914063 C 24.921875 22.132813 24.601563 23.363281 24.390625 24.585938 C 23.671875 23.554688 22.757813 22.558594 21.730469 21.617188 C 21.730469 21.589844 21.730469 21.5625 21.734375 21.535156 C 21.734375 21.535156 21.761719 19.007813 20.777344 16.421875 C 20.28125 15.128906 19.527344 13.792969 18.332031 12.753906 C 17.136719 11.71875 15.488281 11.027344 13.4375 11.027344 C 8.253906 11.027344 3.554688 14.105469 3.554688 14.105469 C 3.183594 14.34375 3.011719 14.796875 3.132813 15.21875 C 3.132813 15.21875 3.808594 17.605469 5.335938 20.011719 C 6.863281 22.414063 9.367188 25 13 25 C 15.492188 25 17.46875 23.886719 17.46875 23.886719 C 17.796875 23.722656 18.007813 23.390625 18.019531 23.027344 C 18.027344 22.660156 17.839844 22.320313 17.527344 22.132813 C 17.210938 21.949219 16.820313 21.949219 16.507813 22.136719 C 16.507813 22.136719 14.890625 23 13 23 C 10.320313 23 8.375 21.0625 7.023438 18.9375 C 6.066406 17.425781 5.59375 16.191406 5.332031 15.441406 C 6.246094 14.910156 9.621094 13.027344 13.4375 13.027344 C 15.058594 13.027344 16.160156 13.519531 17.023438 14.265625 C 17.886719 15.015625 18.492188 16.050781 18.90625 17.136719 C 19.277344 18.105469 19.464844 19.066406 19.578125 19.855469 C 16.972656 17.9375 13.953125 16.460938 11.15625 16.011719 C 11.09375 16 11.027344 15.996094 10.957031 16 C 10.4375 16.007813 10.011719 16.417969 9.984375 16.9375 C 9.953125 17.460938 10.324219 17.914063 10.84375 17.988281 C 13.566406 18.425781 16.976563 20.203125 19.609375 22.410156 C 21.773438 24.230469 23.328125 26.351563 23.820313 28 L 3 28 C 2.449219 28 2 28.449219 2 29 C 2 36.605469 6.527344 43.105469 13 46.140625 L 13 47 C 13 48.09375 13.90625 49 15 49 L 35 49 C 36.09375 49 37 48.09375 37 47 L 37 46.140625 C 43.472656 43.105469 48 36.605469 48 29 C 48 28.449219 47.550781 28 47 28 L 26.03125 28 C 26.328125 21.085938 29.75 13.304688 37.496094 8.867188 C 37.90625 8.640625 38.101563 8.160156 37.972656 7.710938 C 37.839844 7.261719 37.414063 6.964844 36.949219 6.992188 C 36.789063 7.003906 36.640625 7.050781 36.503906 7.132813 C 31.535156 9.976563 28.195313 14.09375 26.226563 18.542969 C 25.648438 17.445313 25 15.839844 25 14.0625 C 25 9.648438 27.046875 7.339844 30.246094 5.867188 C 33.097656 4.558594 36.898438 4.15625 40.644531 4.070313 C 40.363281 5.195313 40.28125 6.292969 40.421875 7.320313 C 40.628906 8.8125 41 10.234375 41 11.910156 C 41 16.507813 38.136719 18.894531 35.078125 20.320313 C 32.019531 21.746094 28.921875 22.003906 28.921875 22.003906 C 28.554688 22.019531 28.222656 22.234375 28.0625 22.5625 C 27.902344 22.890625 27.933594 23.28125 28.144531 23.582031 C 28.355469 23.882813 28.714844 24.039063 29.078125 23.996094 C 29.078125 23.996094 32.480469 23.738281 35.921875 22.132813 C 39.363281 20.527344 43 17.371094 43 11.910156 C 43 9.945313 42.585938 8.367188 42.402344 7.042969 C 42.21875 5.71875 42.21875 4.703125 42.890625 3.457031 C 43.058594 3.148438 43.050781 2.773438 42.871094 2.46875 C 42.691406 2.167969 42.363281 1.980469 42.011719 1.984375 Z M 4.148438 30 L 24.832031 30 C 24.941406 30.019531 25.050781 30.019531 25.15625 30 L 45.847656 30 C 45.453125 36.601563 41.414063 42.214844 35.609375 44.667969 C 35.242188 44.824219 35 45.1875 35 45.589844 L 35 47 L 15 47 L 15 45.589844 C 15 45.1875 14.757813 44.824219 14.390625 44.667969 C 8.585938 42.214844 4.546875 36.601563 4.148438 30 Z"/></svg>
